X:3324
T:Conlan's Well
S:Trad, arr. Paddy O'Brien 
R:reel
E:9
I:speed 350
M:C|
K:D
E|FEDF Adfd|eB~B2 dBAF|DEFA BFAF|~E2 DF EFGE|\
FEDF Adfd|eB~B2 dBAB|defa bfaf|~e2 ce fdd:|\
e|:faaf defa|~a2fd efdB|BAFB ABdf|1 eB~B2 efge|\
faaf defa|bgaf ~g2fe|dcdB ABdf|~e2 de fdd2:|2\
eB~B2 edBA|FEDF Adfd|eB~B2 dBAB|defa bfaf|~e2 de fdd||**


